X: 10
T:Balance the Straw, Fieldtown 1
M:6/8
L:1/8
A:Fieldtown
P:A(AB)4
K:DMix
P:A
|:A|d2f fef|g2e efg|afa geg|f2d d2:|
P:B
|:f/g/ |a2a a2d|g2f f2e|b2a a2d|f2e e2A|
d2f fef|g2e efg|afa geg|f2d d2:|
